X:1
T:Bear the Cross
T:Bear the Cross
T:Roy J. Werner
T:Roy J. Werner, 1908
T:Public Domain Courtesy of the Cyber Hymnal™
T:Public Domain Courtesy of the Cyber Hymnal™
C:Roy J. Werner
Z:Public Domain
Z:Courtesy of the Cyber Hymnal™
%%score 1 ( 2 3 )
L:1/8
Q:1/4=95
M:4/4
K:G
V:1 treble 
V:2 bass 
V:3 bass 
V:1
 [DB][DB][^C^A][DB] [B,G][B,D][^A,C][B,D] | [CE][C^D][CE][CA] [CE]4 | %2
w: 1.~When the sha- dows ga- ther, and the|way is dark and drear,|
w: 2.~When I think of all He suf- fered|there on Cal- va- ry,|
w: 3.~Oh, ’tis sweet to trust Him and to|know that He is near;|
 [CF][CE][CF][B,G] [CA][CF][CE][CD] | [B,G][A,F][B,G][Ec] [DB]4 | %4
w: And the cross too hea- vy for my|fee- ble strength to bear,|
w: From the curse of sin to set my|bur- dened spir- it free,|
w: Day by day He walks with me, my|faint- ing heart to cheer;|
 [DB][DB][^C^A][DB] [B,G][B,D][^A,C][B,D] | [CE][C^D][CE][CA] [Ec]4 | %6
w: How my heart re- joic- es when the|Mas- ter speaks to me,|
w: Then the clouds and dark- ness from my|soul are borne a- way,|
w: In the Fa- ther’s king- dom there’s a|place pre- pared for me,|
 [Fc][DA][CF][CE] [CD][CE][CF][Ec] | [DB]2 [CA]2 [B,G]4 ||"^Refrain" [Gd]2 [GB]2 [Gd]3 [B,D] | %9
w: “Fear not, bur- dened soul, for I will|com- fort thee.”||
w: And a- gain, I hear my Sav- ior|soft- ly say,|“Bear the cross, for|
w: Where with Him in glo- ry I shall|ev- er be.||
 [B,D][B,E][DF][DG] [DG]2 [DF]2 | [Fc]2 [FA]2 [Dc]3 [CF] | [CE][B,D][B,G][Ec] [DB]4 | %12
w: |||
w: sure- ly I am with thee;|I will aid thee|all the wea- ry way;|
w: |||
 [Gd]2 [GB]2 [Gd]3 [DB] | [=FA][FG][FA][FB] [Fd]2 [Ec]2 | [Fc][DA][CF][CE] [CD][CE][CF][Ec] | %15
w: |||
w: No temp- ta- tion|e’er can o- ver- come thee,|Grace I give suf- fi- cient, on- ly|
w: |||
 [DB]2 [CA]2 [B,G]4 |] %16
w: |
w: watch and pray.”|
w: |
V:2
 G,G,G,G, G,G,G,G, | [C,G,][C,F,][C,G,][C,E,] [C,A,]4 | %2
 [D,A,][D,A,][D,A,][D,G,] [D,F,][D,A,][E,A,][F,A,] | G,G,G,G, G,4 | G,G,G,G, G,G,G,G, | %5
 [C,G,][C,F,][C,G,][C,E,] [A,,A,]4 | [D,A,][D,C][D,A,][D,G,] [D,F,][D,G,][D,A,][D,F,] | %7
 [D,F,]2 D,2 [G,,D,]4 || [G,B,]2 [G,D]2 [G,B,]3 G, | G,G,[G,B,][G,B,] [A,C]2 [A,C]2 | %10
 [D,D]2 [D,D]2 [D,A,]3 [D,A,] | G,G,G,G, G,4 | [G,B,]2 [G,D]2 [G,B,]3 G, | %13
 G,=G,=G,=G, [C,^G,]2 [C,A,]2 | [D,A,][D,C][D,A,][D,G,] [D,F,][D,G,][D,A,][D,F,] | %15
 [D,F,]2 D,2 [G,,D,]4 |] %16
V:3
 G,G,G,G, G,G,G,G, | x8 | x8 | G,G,G,G, G,4 | G,G,G,G, G,G,G,G, | x8 | x8 | x2 D,2 x4 || x7 G, | %9
 G,G, x6 | x8 | G,G,G,G, G,4 | x7 G, | ^G,^G,^G,^G, x4 | x8 | x2 D,2 x4 |] %16

